!!!COM:	Messiaen
!!!OTL:	764_Mes-22/111/1-10
**kern	**kern	**kern	**kern	**dynam	**kern
*part5	*part4	*part3	*part2	*part2	*part1
*staff5	*staff4	*staff3	*staff2	*S	*staff1
*I"Vibraphone	*I"Percussion	*I"Percussion	*I"Bassoon	*	*I"Piccolo
*I'Vib.	*I'Perc.	*I'Perc.	*I'Bsn.	*	*I'Picc.
*clefG2	*clefpercussion0	*clefpercussion0	*clefF4	*	*clefG2
*k[]	*	*	*k[]	*	*k[]
*C:	*	*	*C:	*	*C:
*M3/4	*M3/4	*M3/4	*M3/4	*	*M3/4
=1	=1	=1	=1	=1	=1
[2.dn 2.d#X 2.e	[2.x	2.r	16D#X'LL	.	16dddd#X'LL
.	.	.	16DDn'	.	16dddn'
.	.	.	16EE'JJ	.	16eee'JJ
.	.	.	16r	.	16r
.	.	.	16DDn'LL	.	16dddn'LL
.	.	.	16D#X'	.	16dddd#X'
.	.	.	16EE'JJ	.	16eee'JJ
.	.	.	16r	.	16r
.	.	.	16D#'LL	.	16dddd#'LL
.	.	.	16DD'	.	16ddd'
.	.	.	16EE'JJ	.	16eee'JJ
.	.	.	16r	.	16r
=2	=2	=2	=2	=2	=2
4dn_ [4d#X [4e	4x_	2.r	16GGn'LL	.	16gggn'LL
.	.	.	16GG#X'	.	16ggg#X'
.	.	.	16AA#X'	.	16aaa#X'
.	.	.	16C#X'JJ	.	16cccc#X'JJ
16dnKL] 16d#X] 16e]	16xKL]	.	16CCn'KL	.	16cccn'KL
[8.dnJ [8.d#X [8.e	[8.xJ	.	8BB'	.	8bbb'
.	.	.	(16BB-XJk	.	(16bbb-XJk
4dn_ 4d#X_ 4e_	4x_	.	16E-XLL	.	16eeee-XLL
.	.	.	16DDn	.	16dddn
.	.	.	16C#X	.	16cccc#X
.	.	.	[16EEnJJ	.	[16eeenJJ
=3	=3	=3	=3	=3	=3
2dn_ 2d#X_ 2e_	2x_	2.r	16EELL])	.	16eeeLL])
.	.	.	16D#X'	.	16dddd#X'
.	.	.	16DDn'	.	16dddn'
.	.	.	16EE'JJ	.	16eee'JJ
.	.	.	16r	.	16r
.	.	.	16DDn'LL	.	16dddn'LL
.	.	.	16D#X'	.	16dddd#X'
.	.	.	16EE'JJ	.	16eee'JJ
16dnKL] 16d#X] 16e]	16xKL]	.	16r	.	16r
[8.dnJ [8.d#X [8.e	[8.xJ	.	16Dn'LL	.	16ddddn'LL
.	.	.	16DD#X'	.	16ddd#X'
.	.	.	16EE'JJ	.	16eee'JJ
=4	=4	=4	=4	=4	=4
!!linebreak:original
2.dn] 2.d#X] 2.e]	2.x]	2.r	16r	.	16r
.	.	.	16GGn'LL	.	16gggn'LL
.	.	.	16GG#X'	.	16ggg#X'
.	.	.	16AA#X'JJ	.	16aaa#X'JJ
.	.	.	16C#X'LL	.	16cccc#X'LL
.	.	.	16CCn'J	.	16cccn'J
.	.	.	8BB'J	.	8bbb'J
.	.	.	(16BB-XLL	.	(16bbb-XLL
.	.	.	16E-X	.	16eeee-X
.	.	.	16DDn	.	16dddn
.	.	.	16C#XJJ	.	16cccc#XJJ
=5	=5	=5	=5	=5	=5
[2.dn [2.d#X [2.e	[2.x	4r	8EEnL)	.	8eeenL)
.	.	.	(16BB-XL	.	(16bbb-XL
.	.	.	16E-XJJ	.	16eeee-XJJ
.	.	4x	16DDLL	.	16dddLL
.	.	.	16C#X	.	16cccc#X
.	.	.	16EEn	.	16eeen
.	.	.	16BB-XJJ	.	16bbb-XJJ
.	.	4x	8EEnL)	.	8eeenL)
.	.	.	(16BB-XL	.	(16bbb-XL
.	.	.	16E-XJJ	.	16eeee-XJJ
=6	=6	=6	=6	=6	=6
!!pagebreak:original
8dnL] 8d#X] 8e]	8xL]	4x	16DDLL	.	16dddLL
.	.	.	16C#XJ	.	16cccc#XJ
[8dnJ [8d#X [8e	[8xJ	.	8EEnJ)	.	8eeenJ)
2dn_ 2d#X_ 2e_	2x_	8xL	16F#X'LL	.	16ffff#X'LL
.	.	.	16Dn'	.	16ddddn'
.	.	[8xJ	16D#X'	.	16dddd#X'
.	.	.	16G#X'JJ	.	16gggg#X'JJ
.	.	16xKL]	16Dn'LL	.	16ddddn'LL
.	.	8x	16GGn'	.	16gggn'
.	.	.	16C#X'	.	16cccc#X'
.	.	[16xJk	16F#X'JJ	.	16ffff#X'JJ
=7	=7	=7	=7	=7	=7
8.dnL] 8.d#X] 8.e]	8.xL]	16xKL]	16BB'LL	.	16bbb'LL
.	.	8x	16FFn'J	.	16fffn'J
.	.	.	8EE'J	.	8eee'J
[16dnJk [16d#X [16e	[16xJk	[16xJk	.	.	.
2dn_ 2d#X_ 2e_	2x_	16xKL]	16D#X'LL	.	16dddd#X'LL
.	.	8.xJ	16DDn'	.	16dddn'
.	.	.	16EE'	.	16eee'
.	.	.	16DDn'JJ	.	16dddn'JJ
.	.	8.xL	16D#X'LL	.	16dddd#X'LL
.	.	.	16EE'	.	16eee'
.	.	.	16Dn'	.	16ddddn'
.	.	[16xJk	16DD#X'JJ	.	16ddd#X'JJ
=8	=8	=8	=8	=8	=8
!!linebreak:original
!	!	!	!LO:TX:t=cresc.	!	!LO:TX:t=cresc.
8.dnL] 8.d#X] 8.e]	8.xL]	8xL]	16EE'LL	.	16eee'LL
.	.	.	16GGn'	.	16gggn'
.	.	16xL	16GG#X'	.	16ggg#X'
[16dnJk [16d#X [16e	[16xJk	[16xJJ	16AA#X'JJ	.	16aaa#X'JJ
2dn_ 2d#X_ 2e_	2x_	16xKL]	16C#X'LL	.	16cccc#X'LL
.	.	8.xJ	16CCn'	.	16cccn'
.	.	.	16BBn'	.	16bbbn'
.	.	.	16FFn'JJ	.	16fffn'JJ
.	.	4x	16EE'LL	.	16eee'LL
.	.	.	16Gn'	.	16ggggn'
.	.	.	16Dn'	.	16dddd'
.	.	.	16GG#X'JJ	.	16ggg#X'JJ
=9	=9	=9	=9	=9	=9
8dnL] 8d#X] 8e]	8xL]	2x	16Fn'MLL	.	16ffffn'MLL
.	.	.	16E'	.	16eeee'
[8dnJ [8d#X [8e	[8xJ	.	16E'	.	16eeee'
.	.	.	16E'JJ	.	16eeee'JJ
2dn] 2d#X] 2e]	2x]	.	16E'LL	.	16eeee'LL
.	.	.	16B-X'	sf	16bbbb-X'
.	.	.	16E-X'	.	16eeee-X'
.	.	.	16C#X'JJ	.	16cccc#X'JJ
.	.	4x	16BBn'LL	.	16bbbn'LL
.	.	.	16AA#X'	.	16aaa#X'
!	!	!	!LO:TX:t=dim.	!	!LO:TX:t=dim.
.	.	.	16GG#X'	.	16ggg#X'
.	.	.	16GGn'JJ	.	16gggn'JJ
=10	=10	=10	=10	=10	=10
[2dn [2d#X [2e	[2x	4x	16C#X'LL	.	16cccc#X'LL
.	.	.	16CCn'	.	16cccn'
.	.	.	16D#X'	.	16dddd#X'
.	.	.	16DDn'JJ	.	16dddn'JJ
.	.	4x	8EEn'L	.	8eeen'L
.	.	.	(16BB-XL	mf	(16bbb-XL
.	.	.	16E-XJJ	.	16eeee-XJJ
16dnKL] 16d#X] 16e]	16xKL]	8xL	16DDLL	.	16dddLL
[8.dnJ [8.d#X [8.e	[8.xJ	.	16C#X	.	16cccc#X
.	.	8xJ	16EEn	.	16eeen
.	.	.	16BB-XJJ)	.	16bbb-XJJ)
==	==	==	==	==	==
*-	*-	*-	*-	*-	*-
!!!system-decoration: [(s1,s2)][(s3,s4)][(s5)]
!!!ONB: Converted from MusicXML on 2019/06/05
